src/spotify.svg

<svg viewBox="0 0 24 24" fill="none" xmlns="http://www.w3.org/2000/svg"><g clip-path="url(#spotify_svg__clip0_2_3003)"><path fill-rule="evenodd" clip-rule="evenodd" d="M19.04 10.6057C15.1829 8.31571 8.82287 8.10571 5.14145 9.22286C4.85729 9.30905 4.55052 9.27883 4.28864 9.13885C4.02676 8.99887 3.83121 8.76059 3.74502 8.47643C3.65882 8.19227 3.68904 7.8855 3.82902 7.62362C3.969 7.36174 4.20729 7.16619 4.49145 7.08C8.71716 5.79857 15.7429 6.04571 20.1829 8.68C20.3093 8.75504 20.4197 8.85425 20.5078 8.97197C20.5959 9.08969 20.66 9.2236 20.6963 9.36608C20.7327 9.50855 20.7406 9.65678 20.7197 9.80232C20.6987 9.94785 20.6493 10.0878 20.5743 10.2143C20.4993 10.3407 20.4 10.4512 20.2823 10.5393C20.1646 10.6274 20.0307 10.6914 19.8882 10.7278C19.6005 10.8012 19.2954 10.7573 19.04 10.6057ZM18.9143 13.9971C18.7849 14.208 18.577 14.3588 18.3365 14.4164C18.0959 14.474 17.8423 14.4336 17.6314 14.3043C14.4143 12.3286 9.51287 11.7571 5.71002 12.9114C5.4773 12.9701 5.23092 12.937 5.02197 12.8189C4.81303 12.7008 4.65753 12.5069 4.58772 12.2772C4.51792 12.0476 4.53915 11.7999 4.64703 11.5855C4.75491 11.3711 4.94116 11.2065 5.16716 11.1257C9.51287 9.80714 14.9143 10.4457 18.6072 12.7157C18.8176 12.8451 18.9681 13.0527 19.0257 13.2929C19.0833 13.5331 19.0432 13.7864 18.9143 13.9971ZM17.45 17.2543C17.399 17.338 17.3321 17.4109 17.2529 17.4687C17.1737 17.5265 17.084 17.5681 16.9887 17.5912C16.8934 17.6143 16.7945 17.6184 16.6977 17.6032C16.6009 17.5881 16.508 17.554 16.4243 17.5029C13.6157 15.7857 10.08 15.3986 5.91573 16.35C5.81897 16.3758 5.718 16.3818 5.61885 16.3678C5.5197 16.3537 5.4244 16.3198 5.33863 16.2681C5.25287 16.2164 5.1784 16.1479 5.11966 16.0668C5.06092 15.9857 5.01913 15.8936 4.99676 15.796C4.9744 15.6984 4.97193 15.5972 4.98949 15.4987C5.00706 15.4001 5.0443 15.306 5.099 15.2221C5.1537 15.1382 5.22473 15.0662 5.30787 15.0104C5.391 14.9546 5.48453 14.916 5.58287 14.8971C10.14 13.8543 14.0486 14.3029 17.2029 16.23C17.2865 16.2811 17.3592 16.3482 17.4169 16.4274C17.4746 16.5066 17.5161 16.5964 17.539 16.6916C17.562 16.7869 17.5659 16.8857 17.5506 16.9825C17.5354 17.0793 17.5012 17.1721 17.45 17.2557V17.2543ZM11.9643 2.13542e-08C8.79137 2.13542e-08 5.74839 1.26044 3.50478 3.50405C1.26118 5.74765 0.000732422 8.79064 0.000732422 11.9636C0.000732422 15.1365 1.26118 18.1795 3.50478 20.4231C5.74839 22.6667 8.79137 23.9271 11.9643 23.9271C15.1372 23.927 18.1801 22.6663 20.4236 20.4226C22.6671 18.1788 23.9273 15.1358 23.9272 11.9629C23.927 8.78992 22.6663 5.74701 20.4226 3.50354C18.1789 1.26007 15.1358 -0.000189419 11.9629 2.13542e-08H11.9643Z" fill="#1ED760"/></g><defs><clipPath id="spotify_svg__clip0_2_3003"><rect width="24" height="24" fill="white"/></clipPath></defs></svg>

<svg viewBox="0 0 24 24" fill="none" xmlns="http://www.w3.org/2000/svg"><g clip-path="url(#spotify_svg__clip0_2_3003)"><path fill-rule="evenodd" clip-rule="evenodd" d="M19.04 10.606c-3.857-2.29-10.217-2.5-13.899-1.383a1.12 1.12 0 0 1-.65-2.143c4.226-1.281 11.252-1.034 15.692 1.6a1.12 1.12 0 0 1-1.143 1.926Zm-.126 3.391a.933.933 0 0 1-1.283.307c-3.217-1.975-8.118-2.547-11.921-1.393a.934.934 0 0 1-.543-1.785c4.346-1.319 9.747-.68 13.44 1.59a.933.933 0 0 1 .307 1.281Zm-1.464 3.257a.746.746 0 0 1-1.026.249c-2.808-1.717-6.344-2.104-10.508-1.153a.747.747 0 1 1-.333-1.453c4.557-1.043 8.466-.594 11.62 1.333a.747.747 0 0 1 .247 1.026v-.002ZM11.964 0a11.964 11.964 0 1 0 .003 23.927A11.964 11.964 0 0 0 11.963 0h.001Z" fill="#1ED760"/></g><defs><clipPath id="spotify_svg__clip0_2_3003"><path fill="white" d="M0 0h24v24H0z"/></clipPath></defs></svg>
